assets/netapp.svg

<?xml version="1.0" encoding="UTF-8" standalone="no"?>
<svg width="344px" height="60px" viewBox="0 0 344 60" version="1.1" xmlns="http://www.w3.org/2000/svg" xmlns:xlink="http://www.w3.org/1999/xlink" xmlns:sketch="http://www.bohemiancoding.com/sketch/ns">
    <!-- Generator: Sketch 3.3.3 (12072) - http://www.bohemiancoding.com/sketch -->
    <title>Imported Layers</title>
    <desc>Created with Sketch.</desc>
    <defs></defs>
    <g id="Page-1" stroke="none" stroke-width="1" fill="none" fill-rule="evenodd" sketch:type="MSPage">
        <g id="Imported-Layers" sketch:type="MSLayerGroup" fill="#B1B1B1">
            <path d="M58.9228085,0.0532173913 C58.9400608,7.06591304 58.9662006,14.078087 58.9735198,21.0902609 C58.9818845,29.7787826 58.9756109,38.4667826 58.9756109,47.1553043 L58.9756109,48.957913 L36.0055076,48.957913 L36.0055076,19.802087 L23.0845957,19.802087 L23.0845957,49.0586087 L0.0601215805,49.0586087 L0.0601215805,0.0532173913 L58.9228085,0.0532173913" id="Fill-1" sketch:type="MSShapeGroup"></path>
            <path d="M123.45104,0.0532173913 C123.468815,7.06330435 123.494432,14.0733913 123.501751,21.0829565 C123.510638,29.7683478 123.503842,38.4537391 123.503842,47.1386087 L123.503842,49.0471304 C120.492535,49.0471304 117.574809,49.1003478 114.663356,48.9918261 C114.20434,48.9751304 113.700888,48.2801739 113.33859,47.8064348 C106.244766,38.5393043 99.1692401,29.258087 92.0879635,19.9810435 C91.7748085,19.5709565 91.4386505,19.178087 90.8306383,18.4283478 L90.8306383,48.9782609 L80.0652158,48.9782609 L80.0652158,47.1386087 C80.0652158,32.0702609 80.0657386,17.001913 80.0631246,1.93356522 C80.0626018,1.30695652 80.0301884,0.680347826 80.0124134,0.0532173913 L90.0851307,0.0532173913 C97.5564134,9.94747826 105.027696,19.8422609 112.748875,30.0673043 L112.748875,0.0532173913 L123.45104,0.0532173913" id="Fill-2" sketch:type="MSShapeGroup"></path>
            <path d="M223.863489,0.0532173913 C230.600766,16.3048696 237.338565,32.5565217 244.177787,49.0533913 C240.467502,49.0533913 236.982018,49.0873043 233.499149,49.0027826 C233.132669,48.993913 232.643331,48.345913 232.449374,47.8930435 C231.235441,45.0594783 230.054444,42.2107826 228.94141,39.3365217 C228.586432,38.4198261 228.111733,38.0838261 227.108486,38.0926957 C221.602918,38.1422609 216.095781,38.1490435 210.590213,38.0885217 C209.502274,38.0765217 209.033848,38.457913 208.66214,39.4304348 C207.560608,42.3088696 206.384839,45.1612174 205.154699,47.9869565 C204.957605,48.4398261 204.338091,48.9996522 203.900511,49.0106087 C200.603234,49.0966957 197.302298,49.0575652 193.705459,49.0575652 C200.554091,32.606087 207.330055,16.329913 214.105495,0.0532173913 L223.863489,0.0532173913 L223.863489,0.0532173913 Z M218.818505,13.0481739 C216.583027,18.5071304 214.538894,23.4975652 212.476985,28.5323478 L225.169957,28.5323478 C223.076681,23.4297391 221.043003,18.4711304 218.818505,13.0481739 L218.818505,13.0481739 Z" id="Fill-3" sketch:type="MSShapeGroup"></path>
            <path d="M301.005228,59.9775652 L290.363185,59.9775652 L290.363185,11.8346087 L300.884985,11.8346087 L300.884985,16.8088696 C301.305836,16.4337391 301.461629,16.3304348 301.571939,16.1916522 C307.443988,8.81269565 318.126286,10.1034783 323.695112,15.4413913 C328.316632,19.8714783 329.754845,25.4671304 329.518541,31.5954783 C329.312559,36.9370435 327.651635,41.721913 323.632377,45.5285217 C318.101714,50.7667826 307.596122,51.6944348 301.762237,45.2587826 C301.597033,45.0756522 301.391574,44.9290435 301.005228,44.589913 L301.005228,59.9775652 L301.005228,59.9775652 Z M318.913094,30.1873043 C318.825264,29.5257391 318.76096,28.5297391 318.55341,27.564 C317.734711,23.7490435 314.806529,20.8372174 311.235307,20.2236522 C307.71166,19.6184348 304.129459,21.24 302.322152,24.5003478 C300.160389,28.4003478 300.130067,32.4443478 302.313787,36.3354783 C304.688851,40.5678261 309.890152,41.9921739 314.013447,39.6224348 C317.49893,37.6194783 318.744754,34.3481739 318.913094,30.1873043 L318.913094,30.1873043 Z" id="Fill-4" sketch:type="MSShapeGroup"></path>
            <path d="M257.359052,44.474087 L257.359052,59.9906087 L246.909921,59.9906087 L246.909921,11.8194783 L257.341799,11.8194783 L257.341799,16.6966957 C257.770492,16.3841739 257.952948,16.3022609 258.064304,16.1629565 C264.095805,8.62069565 275.460875,10.058087 281.081459,16.3372174 C284.993544,20.7067826 286.209046,25.9325217 285.995222,31.598087 C285.797082,36.8426087 284.214578,41.5622609 280.357909,45.3177391 C274.593033,50.9316522 264.013204,51.633913 258.265581,45.2645217 C258.103514,45.0850435 257.900146,44.9426087 257.359052,44.474087 L257.359052,44.474087 Z M257.250833,30.8916522 C257.331866,31.4806957 257.394079,32.4787826 257.614176,33.4403478 C258.592328,37.7055652 262.045398,40.6387826 266.128438,40.7290435 C270.243368,40.8203478 273.729897,38.0843478 274.898347,33.7815652 C275.616669,31.1353043 275.531976,28.4926957 274.519319,25.9278261 C272.32096,20.3608696 265.821033,18.3453913 261.191672,21.8165217 C258.315246,23.9728696 257.320888,27.0292174 257.250833,30.8916522 L257.250833,30.8916522 Z" id="Fill-5" sketch:type="MSShapeGroup"></path>
            <path d="M157.293739,37.5135652 C159.365581,39.3427826 161.325544,41.0733913 163.387453,42.8937391 C160.943903,46.0606957 157.833264,48.0892174 154.051356,49.1441739 C145.483769,51.5342609 136.511015,48.6401739 131.906748,41.9384348 C125.184109,32.1547826 128.467271,15.4862609 142.099708,11.7151304 C153.376426,8.59513043 163.602845,15.5848696 164.985119,27.3203478 C165.186395,29.0290435 165.149277,30.7643478 165.271088,32.484 C165.361009,33.7544348 164.882128,34.1786087 163.563112,34.1681739 C156.063599,34.1076522 148.56304,34.1389565 141.063003,34.1389565 L139.2191,34.1389565 C139.938468,37.2756522 141.446213,39.5874783 144.334663,40.6226087 C149.218103,42.372 153.497191,41.0874783 157.293739,37.5135652 L157.293739,37.5135652 Z M154.779088,27.3709565 C154.175258,22.4373913 150.79538,19.2511304 146.656401,19.596 C142.590091,19.9356522 139.210213,23.4803478 139.306407,27.3709565 L154.779088,27.3709565 L154.779088,27.3709565 Z" id="Fill-6" sketch:type="MSShapeGroup"></path>
            <path d="M171.766833,20.8351304 L167.360182,20.8351304 L167.360182,18.9693913 L167.360182,11.7667826 L171.717167,11.7667826 L171.717167,2.34573913 L182.414103,2.34573913 L182.414103,11.7031304 L191.086772,11.7031304 L191.086772,20.8205217 L182.581398,20.8205217 C182.536438,21.4732174 182.478407,21.9307826 182.477362,22.3883478 C182.471088,27.048 182.459587,31.7071304 182.478407,36.3667826 C182.490954,39.504 183.583599,40.5521739 186.728742,40.2427826 C188.161726,40.101913 189.560729,39.6166957 191.122845,39.2530435 C191.122845,41.7913043 191.161009,44.3843478 191.081021,46.9732174 C191.06952,47.3493913 190.570772,47.8622609 190.172924,48.0511304 C186.010419,50.0285217 181.678006,50.3551304 177.342979,48.8321739 C173.453897,47.4652174 172.060122,44.1876522 171.939356,40.4102609 C171.752717,34.5532174 171.811271,28.6883478 171.767356,22.8271304 C171.76265,22.2172174 171.766833,21.6073043 171.766833,20.8351304" id="Fill-7" sketch:type="MSShapeGroup"></path>
            <path d="M337.45459,23.3509565 C333.960742,23.3118261 331.285593,20.5862609 331.362444,17.1438261 C331.439295,13.7008696 334.200182,11.0525217 337.661617,11.1015652 C341.129325,11.150087 343.774152,13.8678261 343.738602,17.3462609 C343.703574,20.8012174 340.993921,23.3906087 337.45459,23.3509565 L337.45459,23.3509565 Z M342.532511,17.2831304 C342.554468,14.3926957 340.364474,12.072 337.593653,12.050087 C334.876158,12.0292174 332.545532,14.4 332.519915,17.2121739 C332.494298,20.0384348 334.74755,22.3784348 337.519416,22.4034783 C340.325264,22.4285217 342.51003,20.1970435 342.532511,17.2831304 L342.532511,17.2831304 Z" id="Fill-8" sketch:type="MSShapeGroup"></path>
            <path d="M335.14383,13.6142609 C336.18524,13.6142609 337.017009,13.5949565 337.847733,13.6189565 C338.982201,13.6523478 340.100985,13.7718261 340.411526,15.156 C340.716839,16.5151304 340.100462,17.3624348 338.743283,17.7641739 C339.357568,18.7570435 339.929508,19.6815652 340.588231,20.7453913 C338.143112,21.1653913 338.714529,17.594087 336.28614,17.916 C336.28614,18.638087 336.334237,19.346087 336.262091,20.0415652 C336.234383,20.3123478 335.936912,20.556 335.762298,20.8121739 C335.556316,20.577913 335.176243,20.3467826 335.171015,20.1083478 C335.123964,17.9817391 335.14383,15.854087 335.14383,13.6142609 L335.14383,13.6142609 Z M336.417884,14.2878261 L336.417884,17.0248696 C337.464,16.7066087 338.315112,16.4895652 339.11865,16.1577391 C339.238894,16.1076522 339.244122,15.2744348 339.11865,15.2191304 C338.317204,14.8669565 337.464523,14.6311304 336.417884,14.2878261 L336.417884,14.2878261 Z" id="Fill-9" sketch:type="MSShapeGroup"></path>
        </g>
    </g>
</svg>

<?xml version="1.0" encoding="UTF-8" standalone="no"?>
<svg
   width="300"
   height="90"
   viewBox="0 0 300 90"
   version="1.1"
   id="svg6622"
   sodipodi:docname="netapp.svg"
   inkscape:version="1.1.1 (3bf5ae0d25, 2021-09-20)"
   xmlns:inkscape="http://www.inkscape.org/namespaces/inkscape"
   xmlns:sodipodi="http://sodipodi.sourceforge.net/DTD/sodipodi-0.dtd"
   xmlns="http://www.w3.org/2000/svg"
   xmlns:svg="http://www.w3.org/2000/svg"
   xmlns:rdf="http://www.w3.org/1999/02/22-rdf-syntax-ns#"
   xmlns:cc="http://creativecommons.org/ns#"
   xmlns:dc="http://purl.org/dc/elements/1.1/"
   xmlns:sketch="http://www.bohemiancoding.com/sketch/ns">
  <sodipodi:namedview
     id="namedview6624"
     pagecolor="#ffffff"
     bordercolor="#666666"
     borderopacity="1.0"
     inkscape:pageshadow="2"
     inkscape:pageopacity="0.0"
     inkscape:pagecheckerboard="0"
     showgrid="false"
     inkscape:zoom="1.5826383"
     inkscape:cx="137.11282"
     inkscape:cy="-6.6344913"
     inkscape:window-width="1866"
     inkscape:window-height="1016"
     inkscape:window-x="54"
     inkscape:window-y="27"
     inkscape:window-maximized="1"
     inkscape:current-layer="svg6622" />
  <!-- Generator: Sketch 3.3.3 (12072) - http://www.bohemiancoding.com/sketch -->
  <title
     id="title6605">Imported Layers</title>
  <desc
     id="desc6607">Created with Sketch.</desc>
  <defs
     id="defs6609" />
  <g
     id="Page-1"
     stroke="none"
     stroke-width="1"
     fill="none"
     fill-rule="evenodd"
     sketch:type="MSPage"
     transform="matrix(0.85485988,0,0,0.85485988,3.0499817,19.335481)">
    <g
       id="Imported-Layers"
       sketch:type="MSLayerGroup"
       fill="#b1b1b1">
      <path
         d="m 58.922809,0.05321739 c 0.01725,7.01269561 0.04339,14.02486961 0.05071,21.03704361 0.0084,8.688522 0.0021,17.376522 0.0021,26.065043 v 1.802609 H 36.005508 V 19.802087 H 23.084596 V 49.058609 H 0.06012158 V 0.05321739 H 58.922809"
         id="Fill-1"
         sketch:type="MSShapeGroup" />
      <path
         d="m 123.45104,0.05321739 c 0.0178,7.01008691 0.0434,14.02017361 0.0507,21.02973961 0.009,8.685391 0.002,17.370782 0.002,26.055652 v 1.908521 c -3.0113,0 -5.92903,0.05322 -8.84048,-0.0553 -0.45902,-0.0167 -0.96247,-0.711652 -1.32477,-1.185391 C 106.24477,38.539304 99.16924,29.258087 92.087963,19.981043 91.774809,19.570956 91.43865,19.178087 90.830638,18.428348 V 48.978261 H 80.065216 v -1.839652 c 0,-15.068348 5.23e-4,-30.136696 -0.0021,-45.2050438 -5.23e-4,-0.6266087 -0.03294,-1.25321737 -0.05071,-1.88034781 H 90.085131 C 97.556413,9.9474783 105.0277,19.842261 112.74887,30.067304 V 0.05321739 h 10.70217"
         id="Fill-2"
         sketch:type="MSShapeGroup" />
      <path
         d="m 223.86349,0.05321739 c 6.73728,16.25165261 13.47507,32.50330461 20.3143,49.00017361 -3.71029,0 -7.19577,0.03391 -10.67864,-0.05061 -0.36648,-0.0089 -0.85582,-0.65687 -1.04978,-1.10974 -1.21393,-2.833565 -2.39493,-5.68226 -3.50796,-8.556521 -0.35498,-0.916696 -0.82968,-1.252696 -1.83292,-1.243826 -5.50557,0.04957 -11.01271,0.05635 -16.51828,-0.0042 -1.08794,-0.012 -1.55636,0.369391 -1.92807,1.341913 -1.10153,2.878435 -2.2773,5.730782 -3.50744,8.556521 -0.1971,0.45287 -0.81661,1.012696 -1.25419,1.023653 -3.29728,0.08609 -6.59821,0.04696 -10.19505,0.04696 6.84863,-16.451478 13.62459,-32.727652 20.40003,-49.00434761 h 9.758 z M 218.8185,13.048174 c -2.23547,5.458956 -4.27961,10.449391 -6.34151,15.484174 h 12.69297 C 223.07668,23.429739 221.043,18.47113 218.8185,13.048174 Z"
         id="Fill-3"
         sketch:type="MSShapeGroup" />
      <path
         d="M 301.00523,59.977565 H 290.36318 V 11.834609 h 10.5218 v 4.974261 c 0.42086,-0.375131 0.57665,-0.478435 0.68696,-0.617218 5.87205,-7.3789563 16.55435,-6.088174 22.12317,-0.750261 4.62152,4.430087 6.05973,10.025739 5.82343,16.154087 -0.20598,5.341566 -1.86691,10.126435 -5.88616,13.933044 -5.53067,5.238261 -16.03626,6.165913 -21.87014,-0.269739 -0.16521,-0.183131 -0.37067,-0.32974 -0.75701,-0.66887 z m 17.90786,-29.790261 c -0.0878,-0.661565 -0.15213,-1.657565 -0.35968,-2.623304 -0.8187,-3.814957 -3.74688,-6.726783 -7.3181,-7.340348 -3.52365,-0.605217 -7.10585,1.016348 -8.91316,4.276696 -2.16176,3.9 -2.19208,7.944 -0.008,11.83513 2.37506,4.232348 7.57636,5.656696 11.69966,3.286957 3.48548,-2.002957 4.7313,-5.274261 4.89964,-9.435131 z"
         id="Fill-4"
         sketch:type="MSShapeGroup" />
      <path
         d="M 257.35905,44.474087 V 59.990609 H 246.90992 V 11.819478 h 10.43188 v 4.877218 c 0.42869,-0.312522 0.61115,-0.394435 0.7225,-0.53374 6.0315,-7.5422603 17.39657,-6.104869 23.01716,0.174261 3.91208,4.369566 5.12759,9.595305 4.91376,15.26087 -0.19814,5.244522 -1.78064,9.964174 -5.63731,13.719652 -5.76488,5.613913 -16.34471,6.316174 -22.09233,-0.05322 -0.16207,-0.179479 -0.36543,-0.321913 -0.90653,-0.790435 z m -0.10822,-13.582435 c 0.081,0.589044 0.14325,1.587131 0.36335,2.548696 0.97815,4.265217 4.43122,7.198435 8.51426,7.288696 4.11493,0.0913 7.60146,-2.644696 8.76991,-6.947479 0.71832,-2.646261 0.63363,-5.288869 -0.37903,-7.853739 -2.19836,-5.566956 -8.69829,-7.582435 -13.32765,-4.111304 -2.87642,2.156348 -3.87078,5.212695 -3.94084,9.07513 z"
         id="Fill-5"
         sketch:type="MSShapeGroup" />
      <path
         d="m 157.29374,37.513565 c 2.07184,1.829218 4.0318,3.559826 6.09371,5.380174 -2.44355,3.166957 -5.55419,5.195478 -9.33609,6.250435 -8.56759,2.390087 -17.54035,-0.504 -22.14461,-7.205739 -6.72264,-9.783652 -3.43948,-26.452174 10.19296,-30.223305 11.27672,-3.1199996 21.50313,3.86974 22.88541,15.605218 0.20127,1.708695 0.16416,3.444 0.28597,5.163652 0.0899,1.270435 -0.38896,1.694609 -1.70798,1.684174 -7.49951,-0.06052 -15.00007,-0.02922 -22.50011,-0.02922 h -1.8439 c 0.71937,3.136696 2.22711,5.448522 5.11556,6.483653 4.88344,1.749391 9.16253,0.464869 12.95908,-3.109044 z m -2.51465,-10.142609 c -0.60383,-4.933565 -3.98371,-8.119826 -8.12269,-7.774956 -4.06631,0.339652 -7.44619,3.884348 -7.34999,7.774956 z"
         id="Fill-6"
         sketch:type="MSShapeGroup" />
      <path
         d="m 171.76683,20.83513 h -4.40665 v -1.865739 -7.202608 h 4.35699 V 2.3457391 H 182.4141 V 11.70313 h 8.67267 v 9.117392 h -8.50537 c -0.045,0.652695 -0.10299,1.110261 -0.10404,1.567826 -0.006,4.659652 -0.0178,9.318782 0.001,13.978435 0.0125,3.137217 1.10519,4.185391 4.25033,3.876 1.43299,-0.14087 2.83199,-0.626087 4.3941,-0.98974 0,2.538261 0.0382,5.131305 -0.0418,7.720174 -0.0115,0.376174 -0.51025,0.889044 -0.9081,1.077913 -4.1625,1.977392 -8.49491,2.304 -12.82994,0.781044 -3.88908,-1.366957 -5.28286,-4.644522 -5.40362,-8.421913 -0.18664,-5.857044 -0.12809,-11.721913 -0.172,-17.583131 -0.005,-0.609913 -5.3e-4,-1.219826 -5.3e-4,-1.992"
         id="Fill-7"
         sketch:type="MSShapeGroup" />
      <path
         d="m 337.45459,23.350956 c -3.49385,-0.03913 -6.169,-2.764695 -6.09215,-6.20713 0.0769,-3.442956 2.83774,-6.091304 6.29918,-6.042261 3.4677,0.04852 6.11253,2.766261 6.07698,6.244696 -0.035,3.454956 -2.74468,6.044348 -6.28401,6.004695 z m 5.07792,-6.067826 c 0.022,-2.890434 -2.16804,-5.21113 -4.93886,-5.233043 -2.71749,-0.02087 -5.04812,2.349913 -5.07373,5.162087 -0.0256,2.826261 2.22763,5.166261 4.9995,5.191304 2.80584,0.02504 4.99061,-2.206435 5.01309,-5.120348 z"
         id="Fill-8"
         sketch:type="MSShapeGroup" />
      <path
         d="m 335.14383,13.614261 c 1.04141,0 1.87318,-0.0193 2.7039,0.0047 1.13447,0.03339 2.25325,0.15287 2.5638,1.537044 0.30531,1.35913 -0.31107,2.206435 -1.66825,2.608174 0.61429,0.99287 1.18623,1.917391 1.84495,2.981217 -2.44512,0.42 -1.8737,-3.151304 -4.30209,-2.829391 0,0.722087 0.0481,1.430087 -0.024,2.125565 -0.0277,0.270783 -0.32518,0.514435 -0.49979,0.770609 -0.20598,-0.234261 -0.58606,-0.465391 -0.59129,-0.703826 -0.0471,-2.126609 -0.0272,-4.254261 -0.0272,-6.494087 z m 1.27405,0.673565 v 2.737044 c 1.04612,-0.318261 1.89723,-0.535305 2.70077,-0.867131 0.12024,-0.05009 0.12547,-0.883304 0,-0.938609 -0.80145,-0.352173 -1.65413,-0.588 -2.70077,-0.931304 z"
         id="Fill-9"
         sketch:type="MSShapeGroup" />
    </g>
  </g>
  <metadata
     id="metadata6706">
    <rdf:RDF>
      <cc:Work
         rdf:about="">
        <dc:title>Imported Layers</dc:title>
      </cc:Work>
    </rdf:RDF>
  </metadata>
</svg>
